packages/ffe-icons/icons/open/400/sm/forms_apps_script.svg

<svg xmlns="http://www.w3.org/2000/svg" height="20" viewBox="0 -960 960 960" width="20"><path d="M526-144q-15.3 0-25.65-10.29Q490-164.58 490-179.79t10.35-25.71Q510.7-216 526-216h126l-102-72q-12-8-15-22t5.1-27.15q8.1-13.15 22.5-15.5Q577-355 589-347l104 71-44-118q-5-14 2-27.5t21-18.5q14-5 28 1.5t19 20.5l41 118 34-120q4-14 16.5-22t26.5-4q14 4 22 16.5t4 26.5l-62 232q-3 12-13 19.5t-22 7.5H526Zm-250-48q-15.3 0-25.65-10.29Q240-212.58 240-227.79t10.35-25.71Q260.7-264 276-264h145q15.3 0 25.65 10.29Q457-243.42 457-228.21t-10.35 25.71Q436.3-192 421-192H276Zm0-168q-15.3 0-25.65-10.29Q240-380.58 240-395.79t10.35-25.71Q260.7-432 276-432h145q15.3 0 25.65 10.29Q457-411.42 457-396.21t-10.35 25.71Q436.3-360 421-360H276Zm0-168q-15.3 0-25.65-10.29Q240-548.58 240-563.79t10.35-25.71Q260.7-600 276-600h504q15.3 0 25.65 10.29Q816-579.42 816-564.21t-10.35 25.71Q795.3-528 780-528H276Zm0-168q-15.3 0-25.65-10.29Q240-716.58 240-731.79t10.35-25.71Q260.7-768 276-768h504q15.3 0 25.65 10.29Q816-747.42 816-732.21t-10.35 25.71Q795.3-696 780-696H276Zm-143.79 0q-15.21 0-25.71-10.29T96-731.79q0-15.21 10.29-25.71t25.5-10.5q15.21 0 25.71 10.29t10.5 25.5q0 15.21-10.29 25.71t-25.5 10.5Zm0 168q-15.21 0-25.71-10.29T96-563.79q0-15.21 10.29-25.71t25.5-10.5q15.21 0 25.71 10.29t10.5 25.5q0 15.21-10.29 25.71t-25.5 10.5Zm0 168q-15.21 0-25.71-10.29T96-395.79q0-15.21 10.29-25.71t25.5-10.5q15.21 0 25.71 10.29t10.5 25.5q0 15.21-10.29 25.71t-25.5 10.5Zm0 168q-15.21 0-25.71-10.29T96-227.79q0-15.21 10.29-25.71t25.5-10.5q15.21 0 25.71 10.29t10.5 25.5q0 15.21-10.29 25.71t-25.5 10.5Z"/></svg>

<svg xmlns="http://www.w3.org/2000/svg" height="20" viewBox="0 -960 960 960" width="20"><path d="M526-144q-15.3 0-25.65-10.289-10.35-10.29-10.35-25.5Q490-195 500.35-205.5 510.7-216 526-216h126l-102-72q-12-8-15-22t5.1-27.152q8.1-13.151 22.5-15.5Q577-355 589-347l104 71-44-118q-5-14 2-27.5t21-18.5q14-5 28 1.5t19 20.5l41 118 34-120q4-14 16.5-22t26.5-4q14 4 22 16.5t4 26.5l-62 232q-3 12-13 19.5t-22 7.5H526Zm-250-48q-15.3 0-25.65-10.289-10.35-10.29-10.35-25.5Q240-243 250.35-253.5 260.7-264 276-264h145q15.3 0 25.65 10.289 10.35 10.29 10.35 25.5Q457-213 446.65-202.5 436.3-192 421-192H276Zm0-168q-15.3 0-25.65-10.289-10.35-10.29-10.35-25.5Q240-411 250.35-421.5 260.7-432 276-432h145q15.3 0 25.65 10.289 10.35 10.29 10.35 25.5Q457-381 446.65-370.5 436.3-360 421-360H276Zm0-168q-15.3 0-25.65-10.289-10.35-10.29-10.35-25.5Q240-579 250.35-589.5 260.7-600 276-600h504q15.3 0 25.65 10.289 10.35 10.29 10.35 25.5Q816-549 805.65-538.5 795.3-528 780-528H276Zm0-168q-15.3 0-25.65-10.289-10.35-10.29-10.35-25.5Q240-747 250.35-757.5 260.7-768 276-768h504q15.3 0 25.65 10.289 10.35 10.29 10.35 25.5Q816-717 805.65-706.5 795.3-696 780-696H276Zm-143.789 0Q117-696 106.5-706.289q-10.5-10.29-10.5-25.5Q96-747 106.289-757.5q10.29-10.5 25.5-10.5Q147-768 157.5-757.711q10.5 10.29 10.5 25.5Q168-717 157.711-706.5q-10.29 10.5-25.5 10.5Zm0 168Q117-528 106.5-538.289q-10.5-10.29-10.5-25.5Q96-579 106.289-589.5q10.29-10.5 25.5-10.5Q147-600 157.5-589.711q10.5 10.29 10.5 25.5Q168-549 157.711-538.5q-10.29 10.5-25.5 10.5Zm0 168Q117-360 106.5-370.289q-10.5-10.29-10.5-25.5Q96-411 106.289-421.5q10.29-10.5 25.5-10.5Q147-432 157.5-421.711q10.5 10.29 10.5 25.5Q168-381 157.711-370.5q-10.29 10.5-25.5 10.5Zm0 168Q117-192 106.5-202.289q-10.5-10.29-10.5-25.5Q96-243 106.289-253.5q10.29-10.5 25.5-10.5Q147-264 157.5-253.711q10.5 10.29 10.5 25.5Q168-213 157.711-202.5q-10.29 10.5-25.5 10.5Z"/></svg>
